X:1
T:Rosebank, 77.77
T:Anonymous, before 1908
T:Rosebank, 77.77
T:Public Domain
C:Anonymous, before 1908
Z:Public Domain
%%score ( 1 2 ) ( 3 4 )
L:1/8
M:4/4
K:C
V:1 treble 
V:2 treble 
V:3 bass 
V:4 bass 
V:1
 [EB]2 (AB) [Ec]2 [FB]2 | [EA]2 [E^G]2 [EA]4 | [Ec]2 (cd) (EG) [Fd]2 | [Ec]2 [DB]2 [Ec]4 | %4
 [Ge]2 [Ge]2 [Gd]2 (ed) | (AE) [Fd]2 [EB]4 | [Ec]2 [Gd]2 [Ge]2 (AB) | [Ec]2 (ED) [CA]4 |] %8
V:2
 x2 E2 x4 | x8 | x2 F2 e2 x2 | x8 | x6 ^G2 | c2 x6 | x6 F2 | x2 B2 x4 |] %8
V:3
 [A,C]2 ([A,C][^G,B,]) A,2 [D,D]2 | [E,C]2 [E,B,]2 [A,,C]4 | A,2 (A,B,) [C,C]2 [F,A,]2 | %3
 G,2 G,2 [C,G,]4 | [C,C]2 (E,F,) [G,B,]2 [E,B,]2 | A,2 [D,A,]2 [E,^G,]4 | %6
 A,2 [G,B,]2 [C,C]2 (F,D,) | [E,A,]2 [E,^G,]2 [A,,A,]4 |] %8
V:4
 x4 A,2 x2 | x8 | A,2 F,2 x4 | G,2 G,2 x4 | x2 C2 x4 | A,2 x6 | A,2 x2 A,2 x2 | x8 |] %8

